actions/16/package-new.svg

<?xml version="1.0" encoding="UTF-8" standalone="no"?>
<!-- Created with Inkscape (http://www.inkscape.org/) -->
<svg
   xmlns:svg="http://www.w3.org/2000/svg"
   xmlns="http://www.w3.org/2000/svg"
   xmlns:xlink="http://www.w3.org/1999/xlink"
   version="1.0"
   width="16"
   height="16"
   id="svg2">
  <defs
     id="defs4">
    <linearGradient
       id="linearGradient3195">
      <stop
         id="stop3197"
         style="stop-color:#ffffff;stop-opacity:1"
         offset="0" />
      <stop
         id="stop3199"
         style="stop-color:#ffffff;stop-opacity:0"
         offset="1" />
    </linearGradient>
    <linearGradient
       id="linearGradient3172">
      <stop
         id="stop3174"
         style="stop-color:#6e6e6e;stop-opacity:1"
         offset="0" />
      <stop
         id="stop3176"
         style="stop-color:#808080;stop-opacity:1"
         offset="1" />
    </linearGradient>
    <linearGradient
       id="linearGradient3164">
      <stop
         id="stop3166"
         style="stop-color:#000000;stop-opacity:1"
         offset="0" />
      <stop
         id="stop3168"
         style="stop-color:#000000;stop-opacity:0"
         offset="1" />
    </linearGradient>
    <linearGradient
       x1="7.2048197"
       y1="1038.3619"
       x2="7.2048197"
       y2="1050.3622"
       id="linearGradient3170"
       xlink:href="#linearGradient3164"
       gradientUnits="userSpaceOnUse" />
    <linearGradient
       x1="7.7862067"
       y1="1037.3622"
       x2="7.7862067"
       y2="1051.3672"
       id="linearGradient3178"
       xlink:href="#linearGradient3172"
       gradientUnits="userSpaceOnUse" />
    <linearGradient
       x1="8"
       y1="1052.3622"
       x2="8"
       y2="1039.6725"
       id="linearGradient3201"
       xlink:href="#linearGradient3195"
       gradientUnits="userSpaceOnUse" />
  </defs>
  <g
     transform="translate(0,-1036.3622)"
     id="layer1">
    <rect
       width="13"
       height="13.000017"
       rx="2"
       ry="2"
       x="1.5"
       y="1037.8622"
       id="rect7169"
       style="fill:#ffffff;fill-opacity:1;stroke:url(#linearGradient3178);stroke-width:0.99999994;stroke-miterlimit:4;stroke-dasharray:none;stroke-opacity:1" />
    <rect
       width="11.000001"
       height="11"
       rx="0.98130453"
       ry="0.98130453"
       x="2.5000002"
       y="1038.8622"
       id="rect2392"
       style="opacity:0.2;fill:none;fill-opacity:1;stroke:url(#linearGradient3170);stroke-width:1;stroke-miterlimit:4;stroke-dasharray:none;stroke-opacity:1" />
    <rect
       width="15.000001"
       height="15"
       rx="3.0206895"
       ry="3.0206895"
       x="0.5"
       y="1036.8622"
       id="rect3180"
       style="opacity:0.3;fill:none;fill-opacity:1;stroke:url(#linearGradient3201);stroke-width:0.99999988;stroke-miterlimit:4;stroke-dasharray:none;stroke-opacity:1" />
    <path
       d="M 7.9998022,1039.8622 C 8.2945682,1040.0511 8.4074012,1040.4449 8.5841002,1040.7435 C 8.8914342,1041.3438 9.1342522,1041.9814 9.4820942,1042.5581 C 9.7832122,1042.7902 10.207327,1042.7495 10.56471,1042.8361 C 11.188315,1042.9463 11.835018,1042.9809 12.43154,1043.2131 C 12.685831,1043.4658 12.159331,1043.7895 12.029096,1044.01 C 11.540889,1044.5536 10.984897,1045.0302 10.526013,1045.602 C 10.407907,1045.973 10.575963,1046.382 10.607573,1046.764 C 10.700043,1047.4179 10.868419,1048.0714 10.841388,1048.7361 C 10.690018,1049.0669 10.232809,1048.6436 9.9919272,1048.5823 C 9.3463822,1048.265 8.7408642,1047.8596 8.0787922,1047.5802 C 7.7046852,1047.5774 7.3844362,1047.8709 7.0465862,1048.0204 C 6.4801342,1048.3143 5.9374892,1048.6836 5.3242612,1048.8622 C 4.9764172,1048.814 5.1677192,1048.281 5.2017062,1047.9703 C 5.2909462,1047.2306 5.4727072,1046.5034 5.5224092,1045.759 C 5.4092992,1045.3863 5.0433152,1045.1586 4.8029062,1044.869 C 4.3603462,1044.3968 3.8566022,1043.9715 3.5046372,1043.4172 C 3.4410272,1043.0565 4.0489962,1043.1181 4.2783572,1043.0197 C 4.9790562,1042.8799 5.6969092,1042.8358 6.3896972,1042.6552 C 6.6938992,1042.4276 6.7879582,1041.9934 6.9772282,1041.665 C 7.2701612,1041.0792 7.5014752,1040.447 7.8971772,1039.9259 C 7.9258872,1039.8982 7.9578372,1039.8644 7.9998032,1039.8622 L 7.9998022,1039.8622 z"
       id="path1307"
       style="opacity:0.4;fill:#000000;fill-opacity:1;fill-rule:nonzero;stroke:none;stroke-width:1;stroke-linecap:butt;stroke-linejoin:round;marker:none;stroke-miterlimit:4;stroke-dasharray:none;stroke-dashoffset:0;stroke-opacity:1;visibility:visible;display:inline;overflow:visible" />
  </g>
</svg>

<?xml version="1.0" encoding="UTF-8" standalone="no"?>
<!-- Created with Inkscape (http://www.inkscape.org/) -->

<svg
   xmlns:dc="http://purl.org/dc/elements/1.1/"
   xmlns:cc="http://creativecommons.org/ns#"
   xmlns:rdf="http://www.w3.org/1999/02/22-rdf-syntax-ns#"
   xmlns:svg="http://www.w3.org/2000/svg"
   xmlns="http://www.w3.org/2000/svg"
   xmlns:xlink="http://www.w3.org/1999/xlink"
   xmlns:inkscape="http://www.inkscape.org/namespaces/inkscape"
   version="1.0"
   width="16"
   height="16"
   id="svg2">
  <metadata
     id="metadata23">
    <rdf:RDF>
      <cc:Work
         rdf:about="">
        <dc:format>image/svg+xml</dc:format>
        <dc:type
           rdf:resource="http://purl.org/dc/dcmitype/StillImage" />
      </cc:Work>
    </rdf:RDF>
  </metadata>
  <defs
     id="defs4">
    <linearGradient
       id="linearGradient3195">
      <stop
         id="stop3197"
         style="stop-color:#ffffff;stop-opacity:1"
         offset="0" />
      <stop
         id="stop3199"
         style="stop-color:#ffffff;stop-opacity:0"
         offset="1" />
    </linearGradient>
    <linearGradient
       id="linearGradient3172">
      <stop
         id="stop3174"
         style="stop-color:#6e6e6e;stop-opacity:1"
         offset="0" />
      <stop
         id="stop3176"
         style="stop-color:#808080;stop-opacity:1"
         offset="1" />
    </linearGradient>
    <linearGradient
       id="linearGradient3164">
      <stop
         id="stop3166"
         style="stop-color:#000000;stop-opacity:1"
         offset="0" />
      <stop
         id="stop3168"
         style="stop-color:#000000;stop-opacity:0"
         offset="1" />
    </linearGradient>
    <linearGradient
       x1="7.2048197"
       y1="1038.3619"
       x2="7.2048197"
       y2="1050.3622"
       id="linearGradient3170"
       xlink:href="#linearGradient3164"
       gradientUnits="userSpaceOnUse" />
    <linearGradient
       x1="7.7862067"
       y1="1037.3622"
       x2="7.7862067"
       y2="1051.3672"
       id="linearGradient3178"
       xlink:href="#linearGradient3172"
       gradientUnits="userSpaceOnUse" />
    <linearGradient
       x1="8"
       y1="1052.3622"
       x2="8"
       y2="1039.6725"
       id="linearGradient3201"
       xlink:href="#linearGradient3195"
       gradientUnits="userSpaceOnUse" />
  </defs>
  <g
     transform="translate(0,-1036.3622)"
     id="layer1">
    <rect
       width="13"
       height="13.000017"
       rx="2"
       ry="2"
       x="1.5"
       y="1037.8622"
       id="rect7169"
       style="fill:#ffffff;fill-opacity:1;stroke:url(#linearGradient3178);stroke-width:0.99999994;stroke-miterlimit:4;stroke-opacity:1;stroke-dasharray:none" />
    <rect
       width="11.000001"
       height="11"
       rx="0.98130453"
       ry="0.98130453"
       x="2.5000002"
       y="1038.8622"
       id="rect2392"
       style="opacity:0.2;fill:none;stroke:url(#linearGradient3170);stroke-width:1;stroke-miterlimit:4;stroke-opacity:1;stroke-dasharray:none" />
    <rect
       width="15.000001"
       height="15"
       rx="3.0206895"
       ry="3.0206895"
       x="0.5"
       y="1036.8622"
       id="rect3180"
       style="opacity:0.3;fill:none;stroke:url(#linearGradient3201);stroke-width:0.99999988;stroke-miterlimit:4;stroke-opacity:1;stroke-dasharray:none" />
    <path
       d="m 7.9998022,1039.8622 c 0.294766,0.1889 0.407599,0.5827 0.584298,0.8813 0.307334,0.6003 0.550152,1.2379 0.897994,1.8146 0.301118,0.2321 0.7252328,0.1914 1.0826158,0.278 0.623605,0.1102 1.270308,0.1448 1.86683,0.377 0.254291,0.2527 -0.272209,0.5764 -0.402444,0.7969 -0.488207,0.5436 -1.044199,1.0202 -1.503083,1.592 -0.118106,0.371 0.04995,0.78 0.08156,1.162 0.09247,0.6539 0.260846,1.3074 0.233815,1.9721 -0.15137,0.3308 -0.608579,-0.092 -0.8494608,-0.1538 -0.645545,-0.3173 -1.251063,-0.7227 -1.913135,-1.0021 -0.374107,-0 -0.694356,0.2907 -1.032206,0.4402 -0.566452,0.2939 -1.109097,0.6632 -1.722325,0.8418 -0.347844,-0.048 -0.156542,-0.5812 -0.122555,-0.8919 0.08924,-0.7397 0.271001,-1.4669 0.320703,-2.2113 -0.11311,-0.3727 -0.479094,-0.6004 -0.719503,-0.89 -0.44256,-0.4722 -0.946304,-0.8975 -1.298269,-1.4518 -0.06361,-0.3607 0.544359,-0.2991 0.77372,-0.3975 0.700699,-0.1398 1.418552,-0.1839 2.11134,-0.3645 0.304202,-0.2276 0.398261,-0.6618 0.587531,-0.9902 0.292933,-0.5858 0.524247,-1.218 0.919949,-1.7391 0.02871,-0.028 0.06066,-0.062 0.102626,-0.064 l -10e-7,0 z"
       inkscape:connector-curvature="0"
       id="path1307"
       style="opacity:0.4;fill:#000000;fill-opacity:1;fill-rule:nonzero;stroke:none;stroke-width:1;marker:none;visibility:visible;display:inline;overflow:visible" />
  </g>
</svg>
